X:1
T:The Entertainer
T:The Entertainer
T:A Ragtime Two-Step
T:Scott Joplin
T:1902
T:1902
T:1902
T:1902
C:Scott Joplin
Z:1902
%%score { ( 1 2 ) | ( 3 4 ) }
L:1/8
Q:1/4=82
M:2/4
K:C
V:1 treble nm="Piano" snm="Pno."
V:2 treble 
V:3 bass 
V:4 bass 
V:1
 d'/e'/c'/a/- a/b/g | d/e/c/A/- A/B/G | D/E/C/A,/- A,/B,/A,/_A,/ | G, z !^![GBdg]!>(!(D/^D/)!>)! |: %4
!p! E/cE/ cE/c/- | c2-!<(! c/[cec']/[dfd']/[^d^f^d']/!<)! | %6
!f! [ege']/[cec']/[dfd']/[ege']/- [ege']/[Bdb]/[dfd'] | [cec']2-!>(! [cec'](D/^D/)!>)! | %8
!p! E/cE/ cE/c/- | c2-!<(! c[Aca]/[Gcg]/!<)! | %10
!f! [^Fc^f]/[Aa]/[cc']/[ee']/- [ee']/[dd']/[cc']/[Aa]/ | [dfd']2-!>(! [dfd'](D/^D/)!>)! | %12
!p! E/cE/ cE/c/- | c2-!<(! c/[cec']/[dfd']/[^d^f^d']/!<)! | %14
!f! [ege']/[cec']/[dfd']/[ege']/- [ege']/[Bdb]/[dfd'] | [cec']2- [cec'][cc']/[dd']/ | %16
 [ee']/[cc']/[dd']/[ee']/- [ee']/[cc']/[dd']/[cc']/ | %17
 [ee']/[cc']/[dd']/[ee']/- [ee']/[cc']/[dd']/[cc']/ | %18
 [ege']/[cec']/[dfd']/[ege']/- [ege']/[Bdb]/[dfd'] |1 [cec']2-!>(! [cec'](D/!p!^D/)!>)! :|2 %20
!f! [cec']2- [cec']/[Ece]/[Fdf]/[^F^d^f]/ || [Geg][Aea]/[Geg]/- [Geg]/[Ece]/[Fdf]/[^F^d^f]/ | %22
 [Geg][Aea]/[Geg]/- [Geg]/e/c/G/ | A/B/c/d/ e/d/c/d/ | G/e/f/g/ a/g/e/f/ | %25
 [Geg][Aea]/[Geg]/- [Geg]/[Ece]/[Fdf]/[^F^d^f]/ | [Geg][Aea]/[Geg]/- [Geg]/g/a/^a/ | %27
 [dgb]/[dgb][c^fb]/- [cfb]/a/[cf]/d/ | [Bg]2-!>(! [Bg]/[Ece]/[Fdf]/[^F^d^f]/!>)! | %29
!p! [Geg][Aea]/[Geg]/- [Geg]/[Ece]/[Fdf]/[^F^d^f]/ | [Geg][Aea]/[Geg]/- [Geg]/e/c/G/ | %31
!<(! A/B/c/d/ e/d/c/d/!<)! |!mp! c2-!>(! c/G/^F/G/!>)! |!p! cA/c/- c/A/c/A/ | %34
!<(! G/c/e/g/- g/e/c/G/!<)! |!f! [^FA][Fc] [=Fe]/[Fd][Ec]/- | %36
 [Ec]2- [Ec]/!8va(![ec'e']/[fd'f']/[^f^d'^f']/ | %37
 [ge'g'][ae'a']/[ge'g']/- [ge'g']/[ec'e']/[fd'f']/[^f^d'^f']/ | %38
 [ge'g'][ae'a']/[ge'g']/- [ge'g']/e'/c'/g/ | a/b/c'/d'/ e'/d'/c'/d'/ | g/e'/f'/g'/ a'/g'/e'/f'/ | %41
 [ge'g'][ae'a']/[ge'g']/- [ge'g']/[ec'e']/[fd'f']/[^f^d'^f']/ | %42
 [ge'g'][ae'a']/[ge'g']/- [ge'g']/g'/a'/^a'/ | %43
 [d'g'b']/[d'g'b'][c'^f'b']/- [c'f'b']/a'/[c'f']/d'/ | %44
 [bg']2-!>(! [bg']/[ec'e']/[fd'f']/[^f^d'^f']/!>)! | %45
!p! [ge'g'][ae'a']/[ge'g']/- [ge'g']/[ec'e']/[fd'f']/[^f^d'^f']/ | %46
 [ge'g'][ae'a']/[ge'g']/- [ge'g']/e'/c'/g/ |!<(! a/b/c'/d'/ e'/d'/c'/d'/!<)! | %48
!mp! c'2-!>(! c'/g/^f/g/!>)! |!p! c'a/c'/- c'/a/c'/a/ |!<(! g/c'/e'/g'/- g'/e'/c'/g/!<)! | %51
!f! [^fa][fc'] [=fe']/[fd'][ec']/- | [ec']2- [ec']!8va)!!>(!(D/^D/)!>)! |!p! E/cE/ cE/c/- | %54
 c2-!<(! c/[cec']/[dfd']/[^d^f^d']/!<)! |!f! [ege']/[cec']/[dfd']/[ege']/- [ege']/[Bdb]/[dfd'] | %56
 [cec']2-!>(! [cec']((D/^D/))!>)! |!p! E/cE/ cE/c/- | c2-!<(! c[Aca]/[Gcg]/!<)! | %59
!f! [^Fc^f]/[Aa]/[cc']/[ee']/- [ee']/[dd']/[cc']/[Aa]/ | [dfd']2-!>(! [dfd']((D/^D/))!>)! | %61
!p! E/cE/ cE/c/- | c2-!<(! c/[cec']/[dfd']/[^d^f^d']/!<)! | %63
!f! [ege']/[cec']/[dfd']/[ege']/- [ege']/[Bdb]/[dfd'] | [cec']2- [cec'][cc']/[dd']/ | %65
 [ee']/[cc']/[dd']/[ee']/- [ee']/[cc']/[dd']/[cc']/ | %66
 [ee']/[cc']/[dd']/[ee']/- [ee']/[cc']/[dd']/[cc']/ | %67
 [ege']/[cec']/[dfd']/[ege']/- [ege']/[Bdb]/[dfd'] | [cec']2 [cec'] z |: %69
[K:F]!f! [fa]/^g/[fa]- [fa][fac'] | [fbd']4 | [df]/e/[df]- [df][dfa] | [dgb]2- [dgb]>g | %73
 dg/d/- d/g/d | c2 f2 | e/^g/=b/e'/- e'/d'/b/c'/ | a2 _b2 | [fa]/^g/[fa]- [fa][fac'] | [fbd']4 | %79
 [df]/e/[df]- [df][dfa] | [dgb]2- [dgb]>g | dg/d/- d/g/d | %82
!<(! c2!<)!!sfz!!ff! !>![^G=Bf]>!>(!f!>)! |!f! [Aca]/[cc']g/- g/c/d/e/ |1 [Af](=B/c/ d/e/f/g/) :|2 %85
 [Af] z [fac'f'] z ||[K:C] cA/c/- c/A/c/A/ | G/c/e/g/- g/e/c/G/ | [^FA][c^f] [=Fe]/[Fd][Ec]/- | %89
 [Ec]2 [cegc'] z |: [DF][^CE]/[DF]/- [DF]/[CE]/[DF] | z/ A/[Fd]/A/ c/d/c/A/ | %92
 [EG][^D^F]/[EG]/- [EG]/[DF]/[EG] | z/ c/[Ge]/c/ d/e/d/c/ | [GB][^F^A]/[GB]/- [GB]/[FA]/[GB] | %95
 z/ f/[Ba]/f/ g/a/g/f/ | [cc']/[cc']/ [cc']2 [ca] | [cg][EG]/[EG]/ [EG][EG] | %98
 [DF][^CE]/[DF]/- [DF]/[CE]/[DF] | z/ A/[Fd]/A/ c/d/c/A/ | [EG][^D^F]/[EG]/- [EG]/[DF]/[EG] | %101
 z/ c/[Ge]/c/ d/e/d/c/ | A/^G/A/[Ag]/- [Ag]/[Af][Ac]/ | [Ge]/^d/e/a/- a/c'/g/e/ |1 %104
 [^Fc][Fc] [=FBe]/[FBd][EGc]/- | [EGc][EG]/[EG]/ [EG][EG] :|2 [^Fc][Fc] [=FBe]/[FBd][EGc]/- | %107
 [EGc]2 !^![cegc'] z |] %108
V:2
 d/e/c/A/- A/B/G | x4 | x4 | x4 |: x4 | x4 | x4 | x4 | x4 | x4 | x4 | x4 | x4 | x4 | x4 | x4 | x4 | %17
 x4 | x4 |1 x4 :|2 x4 || x4 | x4 | x4 | x4 | x4 | x4 | x4 | x4 | x4 | x4 | x4 | x4 | x4 | x4 | x4 | %36
 x5/2!8va(! x3/2 | x4 | x4 | x4 | x4 | x4 | x4 | x4 | x4 | x4 | x4 | x4 | x4 | x4 | x4 | x4 | %52
 x3!8va)! x | x4 | x4 | x4 | x4 | x4 | x4 | x4 | x4 | x4 | x4 | x4 | x4 | x4 | x4 | x4 | x4 |: %69
[K:F] x4 | z B/A/ B/c/d | x4 | z G/^F/ G/A/B | x4 | x4 | x4 | x4 | x4 | z B/A/ B/c/d | x4 | %80
 z G/^F/ G/A/B | x4 | x4 | z z/ B/- BB |1 x4 :|2 x4 ||[K:C] x4 | x4 | x4 | x4 |: x4 | x4 | x4 | %93
 x4 | x4 | x4 | x4 | x4 | x4 | x4 | x4 | x4 | x4 | x4 |1 x4 | x4 :|2 x4 | x4 |] %108
V:3
 x4 | D/E/C/A,/- A,/B,/G, | D,/E,/C,/A,,/- A,,/B,,/A,,/_A,,/ | G,, z !^![G,,,G,,][G,B,] |: %4
 C,[E,G,C] [G,,G,][G,_B,C] | [F,,F,][A,C] [E,,E,][G,C] | G,,[E,G,C] G,,[F,G,B,] | %7
 C,[E,G,C] [E,G,C][G,B,] | C,[E,G,C] [G,,G,][G,_B,C] | [F,,F,][A,C] [E,,E,][_E,,_E,] | %10
 [D,,D,][D,^F,A,C] D,[F,A,C] | [G,B,][G,,G,] [A,,A,][B,,B,] | C,[E,G,C] [G,,G,][G,_B,C] | %13
 [F,,F,][A,C] [E,,E,][G,C] | G,,[E,G,C] G,,[F,G,B,] | C,[E,G,C] [G,CE] z | %16
 [C,C][G,CE] [_B,,_B,][G,CE] | [A,,A,][A,CF] [_A,,_A,][A,CF] | [G,,G,][G,CE] G,,[G,B,] |1 %19
 [C,G,C][G,,G,] [A,,A,][B,,B,] :|2 [C,G,C][G,,G,] [C,,C,] z || [C,,C,][G,CE] G,,[G,CE] | %22
 C,[G,CE] G,,[G,CE] | F,,[A,CF] F,[_A,CF] | E,[G,CE] G,,[G,CE] | C,[G,CE] G,,[G,CE] | %26
 C,[G,CE] E,_E, | D,[G,B,D] D,[A,CD] | [G,B,D]!^![F,,F,] !^![E,,E,]!^![D,,D,] | %29
 !^![C,,C,][G,CE] G,,[G,CE] | C,[G,CE] G,,[G,CE] | F,,[A,CF] F,[_A,CF] | E,[G,CE] C,[_B,CE] | %33
 [F,A,CF][F,A,CF] [^F,A,C^D][F,A,CD] | [G,CE][G,CE] [G,CE][G,CE] | [D,C][D,A,] [G,B,][G,B,] | %36
 [C,C]!^![G,,G,] !^![E,,E,]!^![D,,D,] | [C,,C,][G,CE] G,,[G,CE] | C,[G,CE] G,,[G,CE] | %39
 F,,[A,CF] F,[_A,CF] | E,[G,CE] G,,[G,CE] | C,[G,CE] G,,[G,CE] | C,[G,CE] E,_E, | %43
 D,[G,B,D] D,[A,CD] | [G,B,D]!^![F,,F,] !^![E,,E,]!^![D,,D,] | !^![C,,C,][G,CE] G,,[G,CE] | %46
 C,[G,CE] G,,[G,CE] | F,,[A,CF] F,[_A,CF] | E,[G,CE] C,[_B,CE] | %49
 [F,A,CF][F,A,CF] [^F,A,C^D][F,A,CD] | [G,CE][G,CE] [G,CE][G,CE] | [D,C][D,A,] [G,B,][G,B,] | %52
 [C,C][G,,G,] [C,,C,] z | C,[E,G,C] [G,,G,][G,_B,C] | [F,,F,][A,C] [E,,E,][G,C] | %55
 G,,[E,G,C] G,,[F,G,B,] | C,[E,G,C] [E,G,C][G,B,] | C,[E,G,C] [G,,G,][G,_B,C] | %58
 [F,,F,][A,C] [E,,E,][_E,,_E,] | [D,,D,][D,^F,A,C] D,[F,A,C] | [G,B,][G,,G,] [A,,A,][B,,B,] | %61
 C,[E,G,C] [G,,G,][G,_B,C] | [F,,F,][A,C] [E,,E,][G,C] | G,,[E,G,C] G,,[F,G,B,] | %64
 C,[E,G,C] [G,CE] z | [C,C][G,CE] [_B,,_B,][G,CE] | [A,,A,][A,CF] [_A,,_A,][A,CF] | %67
 [G,,G,][G,CE] G,,[G,B,] | [C,G,C][G,,G,] [C,,C,] z |:[K:F] F,,[A,CF] C,[A,CF] | %70
 B,,[B,DF] F,[B,DF] | D,,[A,DF] A,,[A,DF] | G,,[B,D] D,[B,D] | [B,,B,][B,D] [G,,G,][^G,,^G,] | %74
 [A,,A,][A,CF] D,[A,DF] | E,[=B,DE] ^G,[B,DE] | [A,CE]2 [G,CE]2 | F,,[A,CF] C,[A,CF] | %78
 B,,[B,DF] F,[B,DF] | D,,[A,DF] A,,[A,DF] | G,,[B,D] D,[B,D] | [B,,B,][B,D] [G,,G,][^G,,^G,] | %82
 [A,,A,]/[F,,F,]/[E,,E,]/[D,,D,]/!sfz! !>![_D,,_D,]2 | [C,,C,][A,CF] [C,C][C,,C,] |1 %84
 [F,,F,] z z2 :|2 [F,,F,] z [F,,,F,,] z ||[K:C] [F,A,CF][F,A,CF] [^F,A,C^D][F,A,CD] | %87
 [G,CE][G,CE] [G,CE][G,CE] | [D,C][D,A,] [G,B,][G,B,] | [C,C]2 [C,,C,] z |: F,,[F,A,] A,,[F,A,] | %91
 F,,[F,A,] A,,[F,A,] | C,[E,G,C] G,,[E,G,C] | C,[E,G,C] G,,[E,G,C] | G,,[F,G,B,] B,,[F,G,B,] | %95
 G,,[F,G,B,] D,[F,G,B,] | [^D,^F,C] [D,F,C]2 [D,F,C] | [E,G,C] z z2 | F,,[F,A,] A,,[F,A,] | %99
 F,,[F,A,] A,,[F,A,] | C,[E,G,C] G,,[E,G,C] | C,[E,G,C] G,,[E,G,C] | %102
 [F,,F,][D,,D,] [E,,E,][F,,F,] | [G,,G,][G,CE] [^F,C^D][G,CE] |1 [A,,A,][D,,D,] [G,,G,][B,,B,] | %105
 [C,C] z z2 :|2 [A,,A,][D,,D,] [G,,G,][B,,B,] | [C,C][G,,G,] !^![C,,C,] z |] %108
V:4
 x4 | x4 | x4 | x4 |: x4 | x4 | x4 | x4 | x4 | x4 | x4 | x4 | x4 | x4 | x4 | x4 | x4 | x4 | x4 |1 %19
 x4 :|2 x4 || x4 | x4 | x4 | x4 | x4 | x4 | x4 | x4 | x4 | x4 | x4 | x4 | x4 | x4 | x4 | x4 | x4 | %38
 x4 | x4 | x4 | x4 | x4 | x4 | x4 | x4 | x4 | x4 | x4 | x4 | x4 | x4 | x4 | x4 | x4 | x4 | x4 | %57
 x4 | x4 | x4 | x4 | x4 | x4 | x4 | x4 | x4 | x4 | x4 | x4 |:[K:F] x4 | x4 | x4 | x4 | x4 | x4 | %75
 x4 | z2 z C, | x4 | x4 | x4 | x4 | x4 | x4 | x4 |1 x4 :|2 x4 ||[K:C] x4 | x4 | x4 | x4 |: x4 | %91
 x4 | x4 | x4 | x4 | x4 | x4 | x4 | x4 | x4 | x4 | x4 | x4 | x4 |1 x4 | x4 :|2 x4 | x4 |] %108

